X:203
T:Rosebuds in June - Miss Mason
%%VWML:SBG-1-2-862-0
F:http://www.vwml.org/record/SBG/1/2/862
Z:Original Sibelius transcriptions by M. & S. Graebe
M:6/8
I:linebreak $
K:Ab
V:1 treble nm="P1"
V:1
 C | C F G A3/2 G/ F | F =E F G C C | F F G A G F | c d/c/ =B c2 A |$ A A/B/ c/d/ e c B/A/ | %6
 B3/2 A/ B c G A/B/ | c A F F=E F/E/ | F c A F=E |: A/B/ |$ c3/2 B/ c G3/2 A/ B | A G F C2 C | %12
 F F/G/ A/B/ c f c/=B/ | c A G F2 :| %14

